toonz/sources/toonz/Resources/framefirst_click.svg

<?xml version="1.0" encoding="utf-8"?>
<!-- Generator: Adobe Illustrator 21.0.2, SVG Export Plug-In . SVG Version: 6.00 Build 0)  -->
<svg version="1.1"
	 id="svg2" inkscape:version="0.91 r13725" sodipodi:docname="framefirst_click.svg" xmlns:cc="http://creativecommons.org/ns#" xmlns:dc="http://purl.org/dc/elements/1.1/" xmlns:inkscape="http://www.inkscape.org/namespaces/inkscape" xmlns:rdf="http://www.w3.org/1999/02/22-rdf-syntax-ns#" xmlns:sodipodi="http://sodipodi.sourceforge.net/DTD/sodipodi-0.dtd" xmlns:svg="http://www.w3.org/2000/svg"
	 xmlns="http://www.w3.org/2000/svg" xmlns:xlink="http://www.w3.org/1999/xlink" x="0px" y="0px" viewBox="0 0 17 17"
	 style="enable-background:new 0 0 17 17;" xml:space="preserve">
<style type="text/css">
	.st0{fill:none;}
	.st1{fill:none;stroke:#404040;stroke-width:2;stroke-miterlimit:3;}
	.st2{fill:#FFFFFF;}
	.st3{fill:#404040;}
</style>
<sodipodi:namedview  bordercolor="#666666" borderopacity="1" gridtolerance="10" guidetolerance="10" id="namedview17" inkscape:current-layer="svg2" inkscape:cx="10.5" inkscape:cy="8.5" inkscape:pageopacity="0" inkscape:pageshadow="2" inkscape:window-height="480" inkscape:window-maximized="0" inkscape:window-width="796" inkscape:window-x="0" inkscape:window-y="0" inkscape:zoom="13.882353" objecttolerance="10" pagecolor="#ffffff" showgrid="false">
	</sodipodi:namedview>
<g>
	<rect id="rect5" x="-2" y="0" class="st0" width="21" height="17"/>
	<path id="path7" inkscape:connector-curvature="0" class="st1" d="M6,8.5l10-5v10L6,8.5z"/>
	<path id="path9" inkscape:connector-curvature="0" class="st2" d="M6,8.5l10-5v10L6,8.5z"/>
	<g id="g11">
		<path id="path13" inkscape:connector-curvature="0" class="st3" d="M1,15h4V2H1V15z M4,3v11H2V3H4z"/>
		<rect id="rect15" x="2" y="3" class="st2" width="2" height="11"/>
	</g>
</g>
</svg>

<?xml version="1.0" encoding="UTF-8" standalone="no"?><!DOCTYPE svg PUBLIC "-//W3C//DTD SVG 1.1//EN" "http://www.w3.org/Graphics/SVG/1.1/DTD/svg11.dtd"><svg width="100%" height="100%" viewBox="0 0 17 17" version="1.1" xmlns="http://www.w3.org/2000/svg" xmlns:xlink="http://www.w3.org/1999/xlink" xml:space="preserve" style="fill-rule:evenodd;clip-rule:evenodd;stroke-miterlimit:3;"><g><path id="path7" d="M6,8.5l10,-5l0,10l-10,-5Z" style="fill:#e6e6e6;fill-rule:nonzero;stroke:#000;stroke-opacity:0.501961;stroke-width:2px;"/><path id="path9" d="M6,8.5l10,-5l0,10l-10,-5Z" style="fill:#fff;fill-rule:nonzero;"/><path id="path13" d="M1,15l4,0l0,-13l-4,0l0,13Zm3,-12l0,11l-2,0l0,-11l2,0Z" style="fill-opacity:0.501961;fill-rule:nonzero;"/><rect id="rect15" x="2" y="3" width="2" height="11" style="fill:#fff;"/></g></svg>
